X:3
T:The Bee's Knees
C:Robin Beech
N:Montreal 23/02/2004
R:slip jig
M:9/8
L:1/8
K:D
d/e/ |: fed edc dAG | Fdc dBc A2G | FAd Beg fdc |1 d2c BAG A3/2d/e/ :|2
d2c BAG AAG |: FAD GBD ddc | dAF GGA GFE | AAG FdB AAG |
FAD GBD dde | fdA afd BAG |1 FDE DFG AAG :|2 FDE D3 BcA |: GGA BBc dAF |
GGA Bcd eec | ABA ffe ddf | ged edc cBA |1 GdB ceA dcA :|2 GdB ceA d3 |]
